!!!!SEGMENT: pl-kk--kk-i-382--042-001_anonim--msza-na-4-meskie-glosy-zebrana-kyrie.krn
!!!cenid: 18xx:1533
!!!COM: Anonim
!!!COM-rismID: pe30004985
!!!CDT:
!!!CNT:
!!!OPR: Msza na 4 męskie głosy zebrana
!!!OTL: Kyrie
!!!OMV: 001
!!!PDT:
!!!AGN: Sacred; Mass
!!!SMS-siglum: PL-Kk
!!!SMS-shelfmark: Kk.I.382
!!!SMS-shelfwork: 028-001 M
!!!SMS-variant:
!!!SMS-altvar:
!!!NIFC-rismSourceID: 1001139027
!!!NIFC-rismChildID: 1001140226
!!!NIFC-islandoraID: pl-kk:6162
!!!URL-pdf-islandora: https://repozytorium.nifc.pl/islandora/object/pl-kk%3A6162/datastream/PDF/view
!!!URL-scan: https://polish.musicsources.pl/pl/lokalizacje/galeria/rekopisy/5994 @EN{Scan on Polish Music Sources Website} @PL{Skany w portalu Dziedzictwo Muzyki Polskiej w otwartym dostępie}
!!!ONB-nifc: UWAGA: obsada: S/T 1, T 2, A/B 1, B 2. Skan 0036, 0106, 0179, 0255-0256.
!!!AIN: 1 alto 1 bass 2 tenor
!!!key:
**kern	**text	**kern	**text	**kern	**text	**kern	**text
*part4	*part4	*part3	*part3	*part2	*part2	*part1	*part1
*staff4	*staff4	*staff3	*staff3	*staff2	*staff2	*staff1	*staff1
*Ibass	*	*Ialto	*	*Itenor	*	*Itenor	*
*I"Basso II	*	*I"Alto vel Basso I	*	*I"Tenore II	*	*I"Soprano vel Tenore I	*
*I'B 2	*	*I'A vel B 1	*	*I'T 2	*	*I'S vel T 1	*
*clefF4	*	*clefF4	*	*clefG2	*	*clefG2	*
*k[f#c#g#]	*	*k[f#c#g#]	*	*k[f#c#g#]	*	*k[f#c#g#]	*
*A:	*	*A:	*	*A:	*	*A:	*
*M4/4	*	*M4/4	*	*M4/4	*	*M4/4	*
*met(c)	*	*met(c)	*	*met(c)	*	*met(c)	*
=1	=1	=1	=1	=1	=1	=1	=1
!LO:TX:t=P:problem=all\right&colon; global	!	!LO:TX:t=P:problem=all\right&colon; global	!	!LO:TX:t=P:problem=all\right&colon; global	!	!LO:TX:t=P:problem=all\right&colon; global	!
!LO:TX:rj:b:t=Kyrie.	!	!LO:TX:a:t=Msza na 4 męskie głosy złożona z różnych Kompozytorów	!	!LO:TX:a:t=Msza na 4 męskie głosy złożona z różnych kompozy\ntorów.	!	!LO:TX:a:t=Msza na 4 męskie głosy zebrana z różnych kompozytorów.	!
!LO:TX:a:t=Msza na 4 męskie głosy złożona z różnych Kompozytorów.	!	!LO:TX:b:t=Kyrie	!	!LO:TX:rj:b:t=Kyrie.	!	!LO:TX:rj:b:t=Kyrie.	!
4A\	Ky-	4A\	Ky-	4e/	Ky-	4cc#\	Ky-
4A\	-ri-	4A\	-ri-	4e/	-ri-	4cc#\	-ri-
4E\	-e	4G#\	-e	4d/	-e	4b\	-e
4E\	e-	4G#\	e-	4d/	e-	4b\	e-
=2	=2	=2	=2	=2	=2	=2	=2
*	*	*2\right	*	*	*	*	*
2AA/	-lei-	2A\	-lei-	2c#/	-lei-	2a/	-lei-
2AA/	-son	2A\	-son	2c#/	-son	2e/	-son
=3	=3	=3	=3	=3	=3	=3	=3
[<4D\	chris-	(<4A\	Chris-	4d/	Chri-	(>4f#/	Chris-
4D\]	.	4B\)	-te	4e/	-ste	4g#/)	.
4C#/	-te	4A\	.	4e/	.	4a/	-te
4AA/	e-	4A\	e-	4e/	e-	4cc#\	e-
!LO:LB:g=original	!	!LO:LB:g=original	!	!	!	!LO:LB:g=original	!
=4	=4	=4	=4	=4	=4	=4	=4
*2\right	*	*	*	*	*	*	*
2E\	-lei-	2G#\	-lei-	2e/	-lei-	1b\	-leison
2E\	-son	2G#\	-son	2e/	-son	.	.
!	!	!	!	!LO:LB:g=original	!	!	!
=5	=5	=5	=5	=5	=5	=5	=5
4A\	Ky-	4A\	Ky-	4e/	Ky-	4cc#\	Ky-
4A\	-ri-	4A\	-ri-	4e/	-ri-	4cc#\	-ri-
4G#\	-e	4B\	-e	4e/	-e	4dd\	-e
4A\	e-	4A\	e-	4e/	e-	4cc#\	e-
=6	=6	=6	=6	=6	=6	=6	=6
4E\	-lei-	4G#\	-lei-	4e/	-lei-	4b\	-lei-
4E;\	son	4G#\	-son	4e;/	-son	4b;\	-son,
*	*	*	*	*	*	*2\right	*
2C#/	Chris-	2A\	Chris-	2e/	Chris-	2ee\	Chris-
=7	=7	=7	=7	=7	=7	=7	=7
4D\	-te	4A\	-te	4f#/	-te	4a/	-te
4D\	e-	4A\	e-	4f#/	e-	4dd\	e-
4E\	-lei-	(4A\	-lei-	[4e/	-lei-	4cc#\	-le-
4E\	.	4d\)	.	4e/]	.	4b\	-i-
=8	=8	=8	=8	=8	=8	=8	=8
1A\ 1AA\	-son	1c#\	-son	1e/	-son.	1a/	-son.
==:|	==:|	==:|	==:|	==:|	==:|	==:|	==:|
*-	*-	*-	*-	*-	*-	*-	*-
!!!system-decoration: [(s1,s2,s3,s4)]
!!!RDF**kern: > = above
!!!RDF**kern: < = below
!!!EED: Leszek Kubiak
!!!EEV: 2021-02-08
!!!ENC: Marcin Jachim
!!!END: 2021-01-29
!!!YEC: Copyright 2022 Narodowy Instytut Fryderyka Chopina (https://polishscores.org)
!!!YEM: License CC-BY-4.0 (https://creativecommons.org/licenses/by/4.0)
